X:764
T:Reel 764
M:4/4
K:Gmaj
L:1/8
GA|B>G (3GGG GAGE|DEGB cBAG|c>B (3AAA a2ge|Aaag ede2|d>G (3GGG DGBG|B>G (3BAG g2fg|efge dBGA|BcAB G2|D2|D>G (3GGG DGGG|dGBd edBd|d>g (3BAG Bdgf|eaag aged|d>G (3GGG DGGG|DGGB AGBd|efge dBgB|AGAG AG|
